X:181
T:Merry Dancers THO1.181, The
T:Bonny Lass,aka THO1.181, The
T:Ellingham Hall,aka THO1.181
M:6/4
L:1/4
Z:vmp. Peter Dunk 2012.from a transcription by Fynn Titford-Mock 2006
B:Thompson's Compleat Collection of 200 Favourite Country Dances Vol.I,1758
Q:3/4=90
K:G
c|TB3/ A/ BcGE|GAG G2 c|B3/ A/ BcGE|DED D2 c|\
B3/ A/ BcGE|G3/ A/G G2 c|B/c/ dB c2 B|AFD D2:|
|:c|(B/c/)dBGBG|(B/c/)dB G2 c|(B/c/)dBGBG|(F/G/)AF D2 c|\
(B/c/)dBGBG|(B/c/)dB Tc2 e|dcB Tc2 B|AFD D2:|
|:g|f3/ e/ fgdB|gdB G2 g|f3/ e/ fgdB|AFD D2 g|\
f3/ e/ fgdB|def gdB|cac BgB|AFD D2:|

